X:25
%%topspace -50
T:Oak Leaf
C:Susie Secco
M:4/4
L:1/8
K:Bm
ag | "Bm"fBBf edcB | "G"GBdB "A"A2 ag | "Bm"fBBf edcB | "G"GBdB "A"A2 ag |
"Bm"fBBf edcB | "G"GBdB "A"A2 ag | "Bm"fBBf edcB |1 "A"edcd "Bm"B2 :|]2 "A"edcd "Bm"B4 ||
[|: "G"G2 GF GA B2 | "A"Acdc dcBA | "G"G2 GF GA B2 | "A"ABAE "F#m"F3 F |
"G"G2 GF GA B2 | "A"Acdc dcde | "Bm"fedf "A"edcA | "Bm"B2 BA B4 :|]

